X: 2
T: Byrne's
R: hornpipe
M: 4/4
L: 1/8
K: Dmaj
|: A>G |F>EF>G A>FD>c | d>Bc>d e>cA>g | f>dg>e f>de>c | (3dcB c>d e>cA>G |
F>EF>G A>FD>c | d>Bc>d e>cA>g | (3faf d>f (3ege c>e | d>fe>c d2 :|
|: c>d |e>cA>c e>fg>e | a>fd>f b>ge>g | a>fd>f g>ea>f | (3gfe f>d e>cA>G |
F>EF>G A>FD>c | d>Bc>d e>cA>g | (3faf d>f (3ege c>e | d>fe>c d2 :|


Tune 1143	Setting 1143

